assets/logo.svg

<svg width="1631" height="1917" xmlns="http://www.w3.org/2000/svg" xmlns:xlink="http://www.w3.org/1999/xlink" xml:space="preserve" overflow="hidden"><defs><linearGradient x1="1072.75" y1="1254" x2="1072.75" y2="2348.5" gradientUnits="userSpaceOnUse" spreadMethod="reflect" id="fill0"><stop offset="0" stop-color="#F0F8FD"/><stop offset="0.43364" stop-color="#A02B93"/><stop offset="0.74" stop-color="#74C4E9"/><stop offset="0.83" stop-color="#74C4E9"/><stop offset="1" stop-color="#A2D8F0"/></linearGradient></defs><g transform="translate(-235 -880)"><path d="M882.968 1395.67 924.828 1395.67 924.828 1768.75 939.151 1768.45C982.353 1766.63 1021.29 1758.45 1055.97 1743.9 1095.61 1727.28 1129 1703.01 1156.17 1671.09 1183.33 1639.18 1203.96 1600.14 1218.07 1553.98 1232.17 1507.81 1239.22 1455.04 1239.22 1395.67L1281.97 1395.67C1281.97 1461.28 1273.8 1519.69 1257.48 1570.9 1241.15 1622.11 1217.18 1665.38 1185.56 1700.71 1181.61 1705.12 1177.54 1709.41 1173.37 1713.56L1160.59 1725.55 1312.25 2028.01 1262.37 2028.01 1124.38 1752.87 1118.01 1757.03C1102.85 1766.31 1086.7 1774.4 1069.55 1781.31 1029.55 1797.41 984.432 1806.47 934.2 1808.49L924.828 1808.67 924.828 2028.01 882.968 2028.01Z" fill="url(#fill0)" fill-rule="evenodd"/><text fill="#000000" fill-opacity="0" font-family="Arial,Arial_MSFontService,sans-serif" font-size="632.344" x="882.968" y="1948.97">K</text><text font-family="Cascadia Code ExtraLight,Cascadia Code ExtraLight_MSFontService,sans-serif" font-weight="200" font-size="912" transform="matrix(1 0 0 1 783.484 2028)">K</text></g></svg>

<?xml version="1.0" encoding="UTF-8" standalone="no"?>
<svg
   width="651.17798"
   height="651.17798"
   viewBox="0 0 651.17798 651.17798"
   xml:space="preserve"
   overflow="hidden"
   version="1.1"
   id="svg6"
   xmlns="http://www.w3.org/2000/svg"
   xmlns:svg="http://www.w3.org/2000/svg"><defs
     id="defs5"><linearGradient
       x1="1072.75"
       y1="1254"
       x2="1072.75"
       y2="2348.5"
       gradientUnits="userSpaceOnUse"
       spreadMethod="reflect"
       id="fill0"><stop
         offset="0"
         stop-color="#F0F8FD"
         id="stop1" /><stop
         offset="0.43364"
         stop-color="#A02B93"
         id="stop2" /><stop
         offset="0.74"
         stop-color="#74C4E9"
         id="stop3" /><stop
         offset="0.83"
         stop-color="#74C4E9"
         id="stop4" /><stop
         offset="1"
         stop-color="#A2D8F0"
         id="stop5" /></linearGradient></defs><g
     transform="translate(-768.79001,-1376.832)"
     id="g6"><path
       d="m 882.968,1395.67 h 41.86 v 373.08 l 14.323,-0.3 c 43.202,-1.82 82.139,-10 116.819,-24.55 39.64,-16.62 73.03,-40.89 100.2,-72.81 27.16,-31.91 47.79,-70.95 61.9,-117.11 14.1,-46.17 21.15,-98.94 21.15,-158.31 h 42.75 c 0,65.61 -8.17,124.02 -24.49,175.23 -16.33,51.21 -40.3,94.48 -71.92,129.81 -3.95,4.41 -8.02,8.7 -12.19,12.85 l -12.78,11.99 151.66,302.46 h -49.88 l -137.99,-275.14 -6.37,4.16 c -15.16,9.28 -31.31,17.37 -48.46,24.28 -40,16.1 -85.118,25.16 -135.35,27.18 l -9.372,0.18 v 219.34 h -41.86 z"
       fill="url(#fill0)"
       fill-rule="evenodd"
       id="path5"
       style="fill:url(#fill0)" /><text
       fill="#000000"
       fill-opacity="0"
       font-family="Arial, Arial_MSFontService, sans-serif"
       font-size="632.344px"
       x="882.96802"
       y="1948.97"
       id="text5">K</text><text
       font-family="'Cascadia Code ExtraLight', 'Cascadia Code ExtraLight_MSFontService', sans-serif"
       font-weight="200"
       font-size="912px"
       transform="translate(783.484,2028)"
       id="text6">K</text></g></svg>
